X:1
T:Samles skal Norge
T:Samles skal Norge
T:Per Sivle
T:Karl Svensen
C:Karl Svensen
%%score [ 1 2 3 4 ]
L:1/8
Q:1/4=80
M:3/4
K:G
V:1 treble nm="Soprano"
V:2 treble nm="Alto"
V:3 treble-8 nm="Tenor"
V:4 bass nm="Bass"
V:1
 D2 E F G E | D2 B A G F | E2 F G A B | G2 z2 z2 | D2 E F G E | D2 B A G F | E2 F G A B | %7
w: 1.Sam- les skal Nor- ge|end- nu en- gang, og|det er vort frem- tids-|maal,|Sam- les det skal ved|hjer- ter- nes trang og|ei ved det kol- de|
w: 2.Sam- let skal Nor- ge|sy- ne sig end, og|to- ne sit flag, sin|ret.|Mær- ket skal staa, og|Nor- ri- ges mænd skal|fyl- ke sig kring det|
 G2 z2 z2 | c2 B A G F | E2 ^D F E2 | A2 G F E F | D2 z2 z2 | B2 A G F G | E2 A B c e | %14
w: staal,|Sam- les saa skal vort|Nor- ge paa- ny,|som det sig lan- det|bør|sam- les til et i|bygd og i by,\- og|
w: tæt.|Sam- les skal Nor- ges|ri- ge i- gjen|vin- des fra sted til|sted.|\-Varg er i ve- um|ti- fol- dig den, som|
 d2 c B A B | G2 z2 |] %16
w: sam- les som al- drig|før.|
w: her ei vil fyl- kes|med.|
V:2
 B,2 C A, B, C | B,2 D C B, D | E2 C D E D | B,2 z2 z2 | B,2 B, C D C | B,2 D C B, B, | %6
w: 1.Sam- les skal Nor- ge|end- nu en- gang, og|det er vort frem- tids-|maal,|Sam- les det skal ved|hjer- ter- nes trang og|
w: 2.Sam- let skal Nor- ge|sy- ne sig end, og|to- ne sit flag, sin|ret.|Mær- ket skal staa, og|Nor- ri- ges mænd skal|
 C2 C D E D | B, D G F (ED) | C2 E E ^D D | B,2 B, B, B,2 | E2 ^C D B, C | D2 z2 z2 | D2 C B, C D | %13
w: ei ved det kol- de|staal, og ei ved staal. _|Sam- les saa skal vort|Nor- ge paa- ny,|som det sig lan- det|bør|sam- les til et i|
w: fyl- ke sig kring det|tæt. sig kring det tæt. _|Sam- les skal Nor- ges|ri- ge i- gjen|vin- des fra sted til|sted.|\-Varg er i ve- um|
 E2 E ^G A F | =G2 G G F F | G2 z2 |] %16
w: bygd og i by,\- og|sam- les som al- drig|før.|
w: ti- fol- dig den, som|her ei vil fyl- kes|med.|
V:3
 G2 G G G G | G2 F F G G | G2 A G G F | G B d c (BA) | G2 B A G G | G2 F F G G | G2 A G G F | %7
w: 1.Sam- les skal Nor- ge|end- nu en- gang, og|det er vort frem- tids-|maal, vort frem- tids- maal _|Sam- les det skal ved|hjer- ter- nes trang og|ei ved det kol- de|
w: 2.Sam- let skal Nor- ge|sy- ne sig end, og|to- ne sit flag, sin|ret. sit flag, sin ret. _|Mær- ket skal staa, og|Nor- ri- ges mænd skal|fyl- ke sig kring det|
 G2 z2 z2 | E2 c c B B | B2 F A G2 | E2 E D G G | F2 z2 z2 | G2 G G G G | G2 c d e c | d2 e e A d | %15
w: staal,|Sam- les saa skal vort|Nor- ge paa- ny,|som det sig lan- det|bør|sam- les til et i|bygd og i by,\- og|sam- les som al- drig|
w: tæt.|Sam- les skal Nor- ges|ri- ge i- gjen|vin- des fra sted til|sted.|\-Varg er i ve- um|ti- fol- dig den, som|her ei vil fyl- kes|
 B2 z2 |] %16
w: før.|
w: med.|
V:4
 G,,2 G,, G,, G,, G,, | G,,2 G,, G,, G,, B,, | C,2 A,, B,, C, D, | G,,2 z2 z2 | %4
w: 1.Sam- les skal Nor- ge|end- nu en- gang, og|det er vort frem- tids-|maal,|
w: 2.Sam- let skal Nor- ge|sy- ne sig end, og|to- ne sit flag, sin|ret.|
 G,,2 G,, A,, B,, C, | D,2 D, ^D, E, =D, | C,2 A,, B,, C, D, | G,,2 z2 z2 | A,,2 G,, F,, B,, A,, | %9
w: Sam- les det skal ved|hjer- ter- nes trang og|ei ved det kol- de|staal,|Sam- les saa skal vort|
w: Mær- ket skal staa, og|Nor- ri- ges mænd skal|fyl- ke sig kring det|tæt.|Sam- les skal Nor- ges|
 G,,2 B,, B,, E,2 | ^C,2 A,, B,, G,, A,, | D, E, D, =C, (B,,A,,) | G,,2 G,, G,, A,, B,, | %13
w: Nor- ge paa- ny,|som det sig lan- det|bør, som det sig bør, _|sam- les til et i|
w: ri- ge i- gjen|vin- des fra sted til|sted. fra sted til sted. _|\-Varg er i ve- um|
 C,2 C, B,, A,, A,, | B,,2 C, ^C, D, D, | G,,2 z2 |] %16
w: bygd og i by,\- og|sam- les som al- drig|før.|
w: ti- fol- dig den, som|her ei vil fyl- kes|med.|

